dist/img/svg/handset.svg

<svg width="16" height="15" viewBox="0 0 16 15" xmlns="http://www.w3.org/2000/svg">
<path d="M14.3438 9.81397L12.0954 9.58164C11.831 9.55353 11.563 9.58002 11.3116 9.65911C11.0601 9.73821 10.8317 9.86784 10.6436 10.0383L9.0148 11.5124C6.50182 10.3557 4.45926 8.50716 3.18119 6.23287L4.81885 4.75076C5.1995 4.40627 5.38539 3.92559 5.32343 3.43689L5.06671 1.41802C5.01653 1.0272 4.80928 0.666739 4.48445 0.405256C4.15961 0.143773 3.73986 -0.000466468 3.30512 1.13336e-06H1.77369C0.773394 1.13336e-06 -0.0587136 0.753073 0.00325184 1.65836C0.472419 8.5001 6.51847 13.9639 14.0694 14.3885C15.0697 14.4446 15.9018 13.6915 15.9018 12.7862V11.4002C15.9107 10.5911 15.2379 9.9101 14.3438 9.81397Z"/>
</svg>

<svg width="16" height="15" viewBox="0 0 16 15" xmlns="http://www.w3.org/2000/svg"><path d="M14.344 9.814l-2.249-.232a1.936 1.936 0 00-.783.077c-.252.08-.48.209-.668.38l-1.63 1.473c-2.512-1.156-4.555-3.005-5.833-5.28l1.639-1.48c.38-.345.566-.825.504-1.314l-.256-2.019A1.56 1.56 0 004.484.405 1.882 1.882 0 003.305 0H1.774C.774 0-.06.753.004 1.658.471 8.5 6.517 13.964 14.068 14.388c1 .057 1.833-.697 1.833-1.602V11.4c.009-.809-.664-1.49-1.558-1.586z"/></svg>
